X: 291
T: Kan yangge
L: 1/16
M: 4/4
K: Bb
z2 g2 d2 d d g2 g d' b2 a g [I:setbarnb 1]| 
[M:2/4]d2 d'2 b a g a | 
f gd4d'2 | 
b a g a g a g d | 
f2 g a g2 f d | 
c2 B AG4 | 
g2 g d' b a g d | 
g2 g d' b a g2 | 
d'2 b a g a g f | 
d f d c B G B2 | 
c2 d2 g2 g d' | 
b a g c d e d2 | 
g g g d' b a c' g | 
d f c AG4 | 
z2 d'2 b2 b b | 
g a g c d e d2 | 
g g g d' b a c' g | 
d f c AG4- | 
G4z4 |]

@@@ Tune index: 9165
